lib/preview/nrk-logo-preview-nrk-p2-on-light.svg

<svg width="57" height="14" viewBox="0 0 57 14" fill="none" xmlns="http://www.w3.org/2000/svg">
<path d="M0 13.0017V1.0028H3.93719V13.0017H0ZM9.29381 2.91249L11.5581 13.0017H7.24917L4.54549 1.0028H6.96218C7.51635 0.995607 8.05406 1.19096 8.4745 1.5521C8.89562 1.89809 9.18495 2.37841 9.29381 2.91249ZM12.1495 13.0017V1.0028H16.0867V13.0017H12.1495ZM19.0605 5.56581C18.6362 5.56995 18.2188 5.45894 17.8525 5.24467C17.4912 5.03583 17.1911 4.73567 16.9823 4.37431C16.7678 4.00804 16.6568 3.59047 16.661 3.16603C16.6561 2.74417 16.7672 2.32909 16.9823 1.96614C17.1933 1.6087 17.4931 1.3118 17.8525 1.10423C18.2189 0.890211 18.6362 0.779224 19.0605 0.783093C19.4822 0.778551 19.8971 0.889638 20.2602 1.10423C20.616 1.31362 20.9127 1.61027 21.122 1.96614C21.3368 2.32919 21.4479 2.7442 21.4433 3.16603C21.4473 3.59044 21.3363 4.00794 21.122 4.37431C20.9149 4.73408 20.6179 5.03399 20.2602 5.24467C19.8971 5.45969 19.4819 5.5708 19.0599 5.56581H19.0605ZM22.0516 13.0017V1.0028H25.9892V13.0017H22.0516ZM30.9737 7.55994C30.9848 7.57158 31.0693 7.70959 31.2272 7.97398C31.3851 8.23837 31.5907 8.57639 31.8439 8.988C32.0974 9.39942 32.3649 9.83597 32.6463 10.2977C32.9278 10.7594 33.1926 11.1961 33.4408 11.6075C33.6881 12.0189 33.9697 12.4836 34.2857 13.0017H29.9598C29.6893 12.5623 29.4441 12.1652 29.2245 11.8103C29.0048 11.4554 28.7713 11.0723 28.5238 10.6611C28.2758 10.2502 28.0306 9.85025 27.7882 9.46117C27.5458 9.0721 27.3375 8.73132 27.1633 8.43877C26.9883 8.14602 26.8671 7.94883 26.7997 7.84725C26.6325 7.59515 26.5336 7.304 26.5127 7.00225C26.5294 6.71264 26.6226 6.43269 26.7828 6.19082C26.8504 6.07815 26.9743 5.87814 27.1545 5.59084C27.3348 5.30354 27.546 4.96276 27.7882 4.56843C28.0304 4.1741 28.2756 3.77131 28.5238 3.36008C28.772 2.94885 29.0056 2.56294 29.2245 2.20241C29.4445 1.84226 29.6897 1.4423 29.9598 1.00252H34.2857L30.9396 6.46121C30.8361 6.62327 30.7777 6.81005 30.7706 7.00225C30.7818 7.20403 30.8522 7.39803 30.9731 7.55994H30.9737Z" fill="#0A2343"/>
<path d="M47.0172 2.55643C46.8093 2.23569 46.5421 1.95741 46.23 1.73643C45.8822 1.4934 45.4961 1.31055 45.0875 1.19557C44.5914 1.0589 44.0783 0.993558 43.5637 1.0015H38.8571V13.0014H40.6348V8.69159H43.6994C44.391 8.70203 45.0734 8.53315 45.68 8.20145C46.2614 7.87993 46.7442 7.40662 47.0768 6.83217C47.4333 6.1983 47.6118 5.48004 47.5932 4.7533C47.5946 4.3606 47.5493 3.96911 47.458 3.58711C47.3699 3.22134 47.2209 2.87295 47.0172 2.55643ZM45.4427 6.19865C45.2154 6.55514 44.8806 6.83035 44.4864 6.98457C44.0081 7.16527 43.4991 7.25139 42.9878 7.2381H40.6345V2.47191H43.2251C43.7199 2.45328 44.2123 2.54861 44.6642 2.7505C45.0237 2.92391 45.3175 3.20841 45.502 3.56177C45.6977 3.9581 45.7937 4.39611 45.7816 4.83783C45.8011 5.31443 45.6835 5.78663 45.4427 6.19865Z" fill="#AB0058"/>
<path d="M51.0416 11.5477C51.3096 11.3184 51.585 11.0795 51.8762 10.8209C52.2826 10.4605 52.6917 10.069 53.1037 9.64626C53.5157 9.22354 53.9079 8.78421 54.2803 8.32825C54.6423 7.88688 54.9732 7.42109 55.2708 6.93418C55.5488 6.48165 55.7759 5.99983 55.948 5.49754C56.1077 5.03523 56.1907 4.54996 56.1935 4.06093C56.2015 3.60431 56.1091 3.1515 55.9226 2.73446C55.7378 2.34056 55.4657 1.99379 55.1269 1.72039C54.7391 1.41361 54.2926 1.18918 53.8148 1.06094C53.2275 0.900682 52.6204 0.823888 52.0117 0.832785C51.6172 0.831757 51.2235 0.865689 50.835 0.934189C50.4655 0.99952 50.1028 1.09863 49.7515 1.23025C49.4164 1.35544 49.0911 1.50504 48.778 1.67785L48.9981 3.14826C49.2662 2.96881 49.5528 2.81866 49.8531 2.70038C50.1792 2.56953 50.5163 2.4677 50.8604 2.39614C51.2112 2.3229 51.5686 2.2862 51.927 2.28659C52.3023 2.27893 52.6766 2.33014 53.036 2.4384C53.3223 2.52593 53.5854 2.67606 53.8063 2.87785C54.0052 3.06309 54.1586 3.29151 54.2549 3.54545C54.3534 3.81328 54.4022 4.09678 54.3988 4.38206C54.3931 4.86095 54.2955 5.33428 54.1111 5.77641C53.8968 6.29566 53.6241 6.78898 53.2984 7.24685C52.9191 7.78488 52.5064 8.29856 52.0625 8.78486C51.5885 9.3088 51.0721 9.83273 50.5134 10.3567C49.9547 10.8806 49.3762 11.413 48.778 11.9539L48.9981 13.0017H56.3289L56.5321 11.5479L51.0416 11.5477Z" fill="#AB0058"/>
</svg>

<svg xmlns="http://www.w3.org/2000/svg" viewBox="0 0 57 14"><path fill="#0A2343" d="M0 13.002v-12h3.937v12H0Zm9.294-10.09 2.264 10.09H7.25l-2.704-12h2.417a2.276 2.276 0 0 1 1.513.55c.42.346.71.826.819 1.36Zm2.855 10.09v-12h3.938v12h-3.938Zm6.912-7.436a2.382 2.382 0 0 1-2.4-2.4 2.301 2.301 0 0 1 .321-1.2 2.41 2.41 0 0 1 3.278-.862c.356.21.653.506.862.862.215.363.326.778.321 1.2a2.35 2.35 0 0 1-.321 1.208 2.4 2.4 0 0 1-.862.87 2.302 2.302 0 0 1-1.2.322Zm2.99 7.436v-12h3.938v12h-3.937Zm8.923-5.442c.01.012.095.15.253.414s.364.602.617 1.014a315.274 315.274 0 0 1 1.597 2.62c.247.41.529.876.845 1.394H29.96c-.27-.44-.516-.837-.736-1.192-.22-.355-.453-.738-.7-1.149-.248-.41-.493-.81-.736-1.2-.242-.389-.45-.73-.625-1.022a17.97 17.97 0 0 0-.363-.592 1.747 1.747 0 0 1-.287-.845c.016-.29.11-.57.27-.811.067-.113.191-.313.371-.6s.392-.628.634-1.023c.242-.394.488-.797.736-1.208l.7-1.158.736-1.2h4.326l-3.346 5.46a1.08 1.08 0 0 0-.17.54c.012.202.082.396.203.558Z"/><path fill="#AB0058" d="M47.017 2.556a3.013 3.013 0 0 0-.787-.82 3.784 3.784 0 0 0-1.142-.54 5.422 5.422 0 0 0-1.524-.194h-4.707v12h1.778v-4.31h3.064a4.002 4.002 0 0 0 1.981-.49 3.661 3.661 0 0 0 1.397-1.37 4.03 4.03 0 0 0 .516-2.079 4.94 4.94 0 0 0-.135-1.166 3.357 3.357 0 0 0-.44-1.03ZM45.443 6.2a1.997 1.997 0 0 1-.957.786 3.95 3.95 0 0 1-1.498.253h-2.353V2.472h2.59a3.23 3.23 0 0 1 1.44.279c.359.173.653.457.837.81.196.397.292.835.28 1.277.02.476-.098.949-.34 1.36ZM51.042 11.548c.268-.23.543-.469.834-.727.407-.36.816-.752 1.228-1.175.412-.422.804-.862 1.176-1.318.362-.441.693-.907.99-1.394.279-.452.506-.934.678-1.436.16-.463.243-.948.245-1.437a3.115 3.115 0 0 0-.27-1.327 2.869 2.869 0 0 0-.796-1.014 3.633 3.633 0 0 0-1.312-.66 6.49 6.49 0 0 0-1.803-.227 6.676 6.676 0 0 0-1.177.101 6.13 6.13 0 0 0-1.084.296c-.335.125-.66.275-.973.448l.22 1.47c.268-.18.555-.33.855-.448.326-.13.663-.232 1.007-.304a5.19 5.19 0 0 1 1.067-.11c.375-.007.75.044 1.109.152.286.088.55.238.77.44.2.185.353.414.449.667.098.268.147.552.144.837a3.738 3.738 0 0 1-.288 1.394 7.421 7.421 0 0 1-.813 1.47c-.379.539-.792 1.053-1.236 1.539a26.92 26.92 0 0 1-1.549 1.572c-.558.524-1.137 1.056-1.735 1.597l.22 1.048h7.33l.204-1.454h-5.49Z"/></svg>
